X:1
T:Title
%%score ( 1 2 ) ( 3 4 )
L:1/8
Q:1/4=106
M:4/4
K:D
V:1 treble nm="Bright Piano"
V:2 treble 
V:3 bass nm="Bright Piano"
V:4 bass 
V:1
 [DA]4 [DF]2 [CE]2 | D4 z2 [DA]2 | [DB]2 [Gc]2 [Fd]2 [Ec]2 | F2 z2 z4 | [DA]4 [Dd]2 [Dc]2 | %5
w: L.~van~Beethoven * *|||||
 [DB]4 z2 D-[DG] | [EA]2 [FA]2 [GB]2 [FA]2 | G2- [DG]2 [CF]2 [DF]2 | E2 [^DF]2 [EG]2 [EA]2 | %9
w: ||||
 [DF]2 [CE]2 D4 |] %10
w: |
V:2
 x8 | x8 | x8 | B2- [EB-][DB] [CA]4 | x8 | z4 z2 .F2 | x8 | E2 z2 z4 | x8 | x8 |] %10
V:3
 [D,F,]4 [D,A,]2 [A,,G,]2 | [B,,F,]4 z2 [F,A,]2 | G,2 [E,G,]2 [D,A,]2 A,2 | %3
 [D,A,]2 [E,^G,]2 [A,,A,]4 | [D,F,]4 [B,,F,]2 [D,F,]2 | [G,,G,]4 z2 [B,,D,]2 | %6
 [C,A,]2 [D,D]2 [G,D]2 [D,D]2 | z4 z2 B,2 | [G,B,]2 [F,A,]2 [E,B,]2 [C,A,]2 | z2 .A,2 z4 |] %10
V:4
 x8 | x8 | x8 | x8 | x8 | x8 | x8 | [E,B,]4 [F,^A,]2 z =A, | x8 | [D,A,]2 A,,-[A,,G,] [D,F,]4 |] %10

